X:1
T:Title
%%score ( 1 2 ) 3
L:1/8
Q:1/4=90
M:6/8
K:Bb
V:1 treble nm="Grand Piano, Soprano"
V:2 treble 
V:3 bass nm="Choir Pad, Nearer, R. B. Lockwood"
V:1
 [Fd][Ec][DB] [DF][_D=E][=DF] | [EG]3 [EB]3 | [DF][B,D][DF] [=EB][Ec][Ed] | .[Ec]6 | %4
w: By~Frederick~Eberhard~Rimanoczy * * * * *||||
 [Fd][Ec][DB] [DF][_D=E][=DF] | [EG]3 [EB]3 | [DF][FB][Ge] [Fd]2 [Ec] | [DB]6 | [Fc]3 .[Dd]3 | %9
w: |||||
 z3 .c3 | [Fd][Ec][DB] [DF][_D=E][=DF] | [EG]3 [EB]3 | z3 .d3 | [DB]6- | [DB]3 z3 |] %15
w: ||||||
V:2
 x6 | x6 | x6 | x6 | x6 | x6 | x6 | x6 | x6 | [=Ed][Ec][EG] _E2- [EF] | x6 | x6 | %12
 [DF][FB][Ge] F=E[_Ec] | x6 | x6 |] %15
V:3
 [B,,B,][B,,B,][B,,B,] [B,,B,][B,,B,][B,,B,] | [E,B,]3 [G,B,]3 | %2
 [B,,B,][B,,F,][B,,B,] [C,B,][C,B,][C,B,] | .[F,A,]6 | %4
 [B,,B,][B,,B,][B,,B,] [B,,B,][B,,B,][B,,B,] | [E,B,]3 [G,B,]3 | [B,,B,][D,B,][C,C] F,2 [F,A,] | %7
 [B,,B,]6 | [F,A,]3 .[B,,F,]3 | [C,B,][C,B,][C,B,] [F,A,]3 | %10
 [B,,B,][B,,B,][B,,B,] [B,,B,][B,,B,][B,,B,] | [E,B,]3 [G,B,]3 | [B,,B,][D,B,][C,C] F,G,[F,A,] | %13
 [B,,B,]6- | [B,,B,]3 z3 |] %15

